logos/growth-book.svg

<?xml version="1.0" encoding="UTF-8"?>
<svg width="512px" height="80px" viewBox="0 0 512 80" version="1.1" xmlns="http://www.w3.org/2000/svg" preserveAspectRatio="xMidYMid">
    <title>GrowthBook</title>
    <g>
        <g>
            <path d="M24.3953235,28.2797989 L74.6544104,0 C74.6544104,0 69.9161931,4.16811814 70.124539,13.1906349 C70.3466945,22.8060667 74.6544104,26.38157 74.6544104,26.38157 L68.7486757,23.6907861 L22.516308,41.7895572 C22.516308,41.7895572 21.3938222,38.6445554 21.3755093,36.2740958 C21.3277759,30.4260015 24.3953235,28.2797989 24.3953235,28.2797989 Z" fill="#029DD1"></path>
            <path d="M13.703338,46.7673422 L68.614782,26.6808795 C68.614782,26.6808795 63.8765647,30.8489977 64.0849106,39.8718146 C64.3070661,49.4872465 68.614782,53.0624495 68.614782,53.0624495 L60.943211,50.109282 L11.6568052,59.8111743 C11.6568052,59.8111743 10.700936,56.9123448 10.6829793,54.7616391 C10.6360906,48.9132446 13.703338,46.7673422 13.703338,46.7673422 Z" fill="#0047BD"></path>
            <path d="M3.02035873,63.0564464 L60.9573209,52.6628698 C60.9573209,52.6628698 56.2191037,56.8309879 56.4274495,65.8535046 C56.6496051,75.4689365 60.9573209,79.0444397 60.9573209,79.0444397 L3.4529616,79.0444397 C3.4529616,79.0444397 0.0509798381,76.9780931 0,70.7505331 C-0.0468886805,64.9021386 3.02035873,63.0564464 3.02035873,63.0564464 Z" fill="#4817A1"></path>
        </g>
        <path d="M89.2803501,49.126694 C89.2803501,65.8610099 101.84925,76.8303897 117.300467,76.8303897 C126.587169,76.8303897 134.032381,72.9876994 139.316081,67.1423069 L139.316081,47.1251928 L114.017969,47.1251928 L114.017969,55.3722666 L129.949523,55.3722666 L129.949523,63.6991964 C127.547842,65.941166 122.744479,68.5025593 117.300467,68.5025593 C106.733069,68.5025593 98.8873761,60.3353413 98.8873761,49.1257934 C98.8873761,37.9162455 106.732769,29.8294839 117.300467,29.8294839 C122.797657,29.8261211 127.957251,32.4808505 131.150364,36.9555729 L138.835744,32.6325463 C134.512718,26.4671299 127.707854,21.5031546 117.300467,21.5031546 C101.84925,21.5031546 89.2803501,32.3926784 89.2803501,49.126694 Z M146.432563,75.789561 L154.838448,75.789561 L154.838448,49.4470183 C156.519625,46.7247124 161.243132,44.3227307 164.765498,44.3227307 C165.65217,44.3080659 166.537856,44.3885828 167.407348,44.5628989 L167.407348,36.2359691 C162.363817,36.2359691 157.720466,39.1179869 154.838448,42.8015658 L154.838448,37.1164856 L146.432563,37.1164856 L146.432563,75.789561 L146.432563,75.789561 Z M189.258145,76.7502335 C201.667033,76.7502335 209.192101,67.5424871 209.192101,56.4130953 C209.192101,45.3635594 201.666733,36.155813 189.258145,36.155813 C177.00957,36.155813 169.403745,45.3635594 169.403745,56.4130953 C169.403745,67.5424871 177.00927,76.7502335 189.258145,76.7502335 L189.258145,76.7502335 Z M189.258145,69.3050211 C182.132957,69.3050211 178.129955,63.3008175 178.129955,56.413996 C178.129955,49.6082312 182.132957,43.6031269 189.258145,43.6031269 C196.46319,43.6031269 200.465892,49.6073305 200.465892,56.413996 C200.465892,63.2990162 196.46319,69.3041204 189.258145,69.3041204 L189.258145,69.3050211 Z M248.973853,75.789561 L257.780218,75.789561 L269.788626,37.1164856 L261.063317,37.1164856 L252.8976,65.2206616 L243.690154,37.1164856 L236.325998,37.1164856 L227.119453,65.2206616 L218.953736,37.1164856 L210.226326,37.1164856 L222.234733,75.789561 L231.042299,75.789561 L240.008676,47.445517 L248.973853,75.789561 Z M284.830657,76.7502335 C288.753503,76.7502335 291.23504,75.7094048 292.756205,74.2680958 L290.754104,67.9417666 C290.113755,68.6622711 288.59259,69.3029196 286.99157,69.3029196 C284.589888,69.3029196 283.308891,67.3815745 283.308891,64.7397249 L283.308891,44.4827428 L291.154584,44.4827428 L291.154584,37.1164856 L283.308891,37.1164856 L283.308891,26.5490873 L274.903006,26.5490873 L274.903006,37.1179866 L268.498923,37.1179866 L268.498923,44.4842438 L274.903006,44.4842438 L274.903006,66.8219827 C274.903006,73.2272671 278.346117,76.7502335 284.830657,76.7502335 Z M322.531351,75.789561 L330.940238,75.789561 L330.940238,48.4061896 C330.940238,40.4806409 326.776323,36.155813 318.448493,36.155813 C312.366235,36.155813 307.322704,39.3584552 304.758909,42.4001848 L304.758909,22.3839712 L296.353024,22.3839712 L296.353024,75.789561 L304.758909,75.789561 L304.758909,48.80667 C306.761311,46.1648204 310.444889,43.6022263 314.686859,43.6022263 C319.409165,43.6022263 322.531351,45.4437156 322.531351,51.4488198 L322.531351,75.789561 L322.531351,75.789561 Z M339.658342,75.789561 L366.638231,75.789561 C376.644236,75.789561 382.168104,69.6241445 382.168104,61.3773709 C382.168104,54.8117742 377.523852,49.126694 371.840873,48.2461776 C376.803348,47.2053489 381.126374,42.7223103 381.126374,35.995801 C381.126374,28.4692316 375.683564,22.3839712 365.917726,22.3839712 L339.658342,22.3839712 L339.658342,75.789561 L339.658342,75.789561 Z M349.0249,44.4827428 L349.0249,30.6310451 L363.996381,30.6310451 C368.799744,30.6310451 371.519648,33.5935191 371.519648,37.5959212 C371.519648,41.5983234 368.799744,44.4815419 363.996381,44.4815419 L349.0249,44.4815419 L349.0249,44.4827428 Z M349.0249,67.5424871 L349.0249,52.7298166 L364.395661,52.7298166 C369.760417,52.7298166 372.561378,56.0921706 372.561378,60.0960738 C372.561378,64.7400251 369.520249,67.5412863 364.395661,67.5412863 L349.0249,67.5412863 L349.0249,67.5424871 Z M406.338025,76.7502335 C418.745712,76.7502335 426.271981,67.5424871 426.271981,56.4130953 C426.271981,45.3635594 418.745712,36.155813 406.338025,36.155813 C394.08945,36.155813 386.482124,45.3635594 386.482124,56.4130953 C386.482124,67.5424871 394.08945,76.7502335 406.338025,76.7502335 Z M406.338025,69.3050211 C399.214038,69.3050211 395.209234,63.3008175 395.209234,56.413996 C395.209234,49.6082312 399.214038,43.6031269 406.338025,43.6031269 C413.543069,43.6031269 417.544871,49.6073305 417.544871,56.413996 C417.544871,63.2990162 413.543069,69.3041204 406.338025,69.3041204 L406.338025,69.3050211 Z M449.802455,76.7502335 C462.210142,76.7502335 469.736411,67.5424871 469.736411,56.4130953 C469.736411,45.3635594 462.210142,36.155813 449.802455,36.155813 C437.55388,36.155813 429.946554,45.3635594 429.946554,56.4130953 C429.946554,67.5424871 437.55388,76.7502335 449.802455,76.7502335 Z M449.802455,69.3050211 C442.675465,69.3050211 438.673664,63.3008175 438.673664,56.413996 C438.673664,49.6082312 442.675465,43.6031269 449.802455,43.6031269 C457.007499,43.6031269 461.009301,49.6073305 461.009301,56.413996 C461.009301,63.2990162 457.007499,69.3041204 449.802455,69.3041204 L449.802455,69.3050211 Z M501.432602,75.789561 L512,75.789561 L495.587509,54.651462 L511.678775,37.1164856 L501.27349,37.1164856 L484.21855,55.7724468 L484.21855,22.3839712 L475.812665,22.3839712 L475.812665,75.789561 L484.21855,75.789561 L484.21855,65.3806736 L489.583306,59.8568063 L501.432602,75.789561 Z" fill="#029DD1"></path>
    </g>
</svg>

<svg preserveAspectRatio="xMidYMid" viewBox="0 0 512 80" xmlns="http://www.w3.org/2000/svg">
  <path fill="#029DD1" d="M24.395 28.28 74.655 0s-4.739 4.168-4.53 13.19c.222 9.616 4.53 13.192 4.53 13.192l-5.906-2.691L22.516 41.79s-1.122-3.145-1.14-5.516c-.048-5.848 3.02-7.994 3.02-7.994Z"/>
  <path fill="#0047BD" d="m13.703 46.767 54.912-20.086s-4.738 4.168-4.53 13.19c.222 9.616 4.53 13.191 4.53 13.191l-7.672-2.953-49.286 9.702s-.956-2.899-.974-5.05c-.047-5.848 3.02-7.994 3.02-7.994Z"/>
  <path fill="#4817A1" d="m3.02 63.056 57.937-10.393s-4.738 4.168-4.53 13.19c.223 9.616 4.53 13.191 4.53 13.191H3.453S.051 76.978 0 70.751c-.047-5.849 3.02-7.695 3.02-7.695Z"/>
  <path fill="#029DD1" d="M89.28 49.127c0 16.734 12.57 27.703 28.02 27.703 9.287 0 16.732-3.842 22.016-9.688V47.125h-25.298v8.247h15.932V63.7c-2.402 2.242-7.206 4.804-12.65 4.804-10.567 0-18.413-8.168-18.413-19.377 0-11.21 7.846-19.297 18.413-19.297a17.002 17.002 0 0 1 13.85 7.127l7.686-4.323c-4.323-6.166-11.128-11.13-21.536-11.13-15.45 0-28.02 10.89-28.02 27.624Zm57.153 26.663h8.405V49.447c1.682-2.722 6.405-5.124 9.927-5.124.887-.015 1.773.066 2.642.24v-8.327c-5.043 0-9.687 2.882-12.569 6.566v-5.686h-8.405V75.79Zm42.825.96c12.409 0 19.934-9.208 19.934-20.337 0-11.05-7.525-20.257-19.934-20.257-12.248 0-19.854 9.208-19.854 20.257 0 11.13 7.605 20.337 19.854 20.337Zm0-7.445c-7.125 0-11.128-6.004-11.128-12.891 0-6.806 4.003-12.81 11.128-12.81 7.205 0 11.208 6.003 11.208 12.81 0 6.885-4.003 12.89-11.208 12.89v.001Zm59.716 6.485h8.806l12.009-38.674h-8.726l-8.165 28.105-9.208-28.105h-7.364l-9.207 28.105-8.165-28.105h-8.728l12.009 38.674h8.807l8.967-28.344 8.965 28.344Zm35.857.96c3.923 0 6.404-1.04 7.925-2.482l-2.002-6.326c-.64.72-2.161 1.36-3.762 1.36-2.402 0-3.683-1.92-3.683-4.562V44.483h7.846v-7.367h-7.846V26.55h-8.406v10.569h-6.404v7.366h6.404v22.338c0 6.405 3.443 9.928 9.928 9.928Zm37.7-.96h8.41V48.406c0-7.925-4.165-12.25-12.493-12.25-6.082 0-11.125 3.202-13.69 6.244V22.384h-8.405V75.79h8.406V48.807c2.002-2.642 5.686-5.205 9.928-5.205 4.722 0 7.844 1.842 7.844 7.847v24.34Zm17.127 0h26.98c10.006 0 15.53-6.166 15.53-14.413 0-6.565-4.644-12.25-10.327-13.13 4.962-1.042 9.285-5.525 9.285-12.251 0-7.527-5.442-13.612-15.208-13.612h-26.26V75.79Zm9.367-31.307V30.63h14.971c4.804 0 7.524 2.963 7.524 6.965s-2.72 6.886-7.524 6.886h-14.971Zm0 23.06V52.73h15.37c5.365 0 8.166 3.362 8.166 7.366 0 4.644-3.04 7.445-8.165 7.445h-15.371v.001Zm57.313 9.207c12.408 0 19.934-9.208 19.934-20.337 0-11.05-7.526-20.257-19.934-20.257-12.249 0-19.856 9.208-19.856 20.257 0 11.13 7.607 20.337 19.856 20.337Zm0-7.445c-7.124 0-11.129-6.004-11.129-12.891 0-6.806 4.005-12.81 11.129-12.81 7.205 0 11.207 6.003 11.207 12.81 0 6.885-4.002 12.89-11.207 12.89v.001Zm43.464 7.445c12.408 0 19.934-9.208 19.934-20.337 0-11.05-7.526-20.257-19.934-20.257-12.248 0-19.855 9.208-19.855 20.257 0 11.13 7.607 20.337 19.855 20.337Zm0-7.445c-7.127 0-11.128-6.004-11.128-12.891 0-6.806 4.001-12.81 11.128-12.81 7.205 0 11.207 6.003 11.207 12.81 0 6.885-4.002 12.89-11.207 12.89v.001Zm51.63 6.485H512l-16.412-21.14 16.09-17.535h-10.405L484.22 55.772V22.384h-8.406V75.79h8.406V65.38l5.364-5.523 11.85 15.933Z"/>
</svg>
